X: 1
T: The Bank Of Ireland
R: reel
M: 4/4
L: 1/8
K: Dmix
ed|c2AB cABG|EGDG EGAB|c2AB cABG|Add^c dfed|
c2AB cABG|EGDG EGAB|c2AB cABG|Add^c d2|
K:D
e|f2df e3 c|dfed cAAg|fedf e2fg|afge d2cd|
eaag egfe|dfed cAGB|Addc defg|af (3gfe d2|


Tune 320	Setting 26841

